X: 1556
T: Pancar Pezik Değil mi
C: Veli Kangal
O: Turkey
F: http://compmusic.upf.edu/node/140
N: segah--turku--sofyan--pancar_pezik--hacibektas
N: makam= segah
N: form= turku
N: usul= sofyan = 4/4
M: 4/4
L: 1/16
K: C _1/4B _1/4e ^f 
Q: 1/4=81
%%MIDI tuningsystem comma53
f2f2 f2f2 f2f2 f2f2  | fga2 ag/f/g2 f2B2 f2B2  | \
w:  ARANAĞME  |   | 
gfga gafg e{f}e{f}de {f}d2d2  | 
w:   | 
d3a gafg e{f}e{f}de d2c2  | B2B2 dc2^3/4A B2B,2 B2B2  | 
w:   |   | 
d3a gafg e{f}e{f}de d2d2  | cdca gafg e{f}e{f}de d2c2  | 
w:   |   | 
B2B2 c3/2B/c^3/4A B2B,2 B2B2  | d3a gafg e{f}e{f}de d2d2  | 
w:   |   | 
cdca gafg e{f}e{f}de d2c2  | B2B2 c3/2B/c^3/4A B2B,2 B2B2  | 
w:   |   | 
f2f6 f2f6  | fgag ag2^3/4e f2B2 f2f2  | \
w:  Pan car  pe zik   |  de *  *  *  ğil  *  *  mi   SAZ  | 
gfga g2^1/4f2 e2de .d4  | 
w:  Ci ğer  *  *  *  *  e *  *  zik   | 
dd2a g2^1/4f2 e2d2 d2c2  | B2B2 dc2^3/4A B4 Bcd/e/f/g/  | 
w:  ci ğer  *  *  *  e *  zik   |  de ğil  *  *  *  mi   SAZ  | 
gfga g2^1/4f2 e2de .d4  | dd2a g2^1/4f2 e2d2 d2c2  | \
w:  Ci ğer  *  *  *  *  e *  *  zik   |  ci ğer  *  *  *  e *  zik   | 
B2B2 dc2B B4 BFFF  | 
w:  de ğil  *  *  *  mi   SAZ  | 
f2f6 f2f6  | fgag ag2^3/4e f4 .f2.f2  | \
w:  Ben  sev dim_ el  |  ler  *  *  *  al *  *  dı   SAZ  | 
gfga gg^1/4f2 e2de d4  | 
w:  Ba na  *  *  *  da  *  ya *  *  zık   | 
dd2a gg^1/4fe e2de d2c2  | B2B2 dc2^3/4A B2B,2 B2B2  | 
w:  ba na  *  *  da  *  *  ya *  *  zık   |  de ğil  *  *  *  mi   SAZ  | 
fg2a gg^1/4fe e2de d4  | aa3 gg^1/4f2 e2d2 d2c2  | \
w:  Ba na  *  *  da  *  *  ya *  *  zık   |  ba na  *  da  *  ya *  zık   | 
B2B2 dc2^3/4A B4 .B.cd/e/f/g/  | 
w:  de ğil  *  *  *  mi   SAZ  | 
gfgf gg^1/4f2 eede d2d2  | dd2a gg^1/4f2 eed2 dccB  | 
w:  Hü day *  *  da  da  *  ha nım  *  *  kız lar   |  hü day *  da  da  *  ha nım  *  kız *  lar   | 
B2B2 dc2^3/4A B4 .B.cd/e/f/g/  | f2g2 gg^1/4f2 e2de .d4  | 
w:  hü day *  *  *  da   SAZ  |  Ye ni le  de  *  çık *  *  mış   | 
aa3 gg^1/4f2 ede2 d2c2  | BB3 dc2^3/4A B2B,2 .B.cd/e/f/g/  | 
w:  ye ni le  de  *  çık *  *  mış   |  bu  gay *  *  *  da   SAZ  | 
g2gf {g}g2^1/4f2 e{f}e{f}de .d4  | \
w:  Ay rı *  *  lık  var  ö *  lüm  *  *  *  var   | 
d3a g2^1/4f2 eede d2c2  | B4 dc2^3/4A B2B,2 B2B2  | 
w:  ay rı lık  var  ö lüm  *  *  var   |  ne  fay *  *  da   SAZ  | 
d3a gafg e{f}e{f}de d2d2  | cdca gafg e{f}e{f}de d2c2  | 
w:   |   | 
B2B2 c3/2B/c^3/4A B2B,2 B2B2  | d3a gafg e{f}e{f}de d2d2  | 
w:   |   | 
cdca gafg e{f}e{f}de d2c2  | B2B2 c3/2B/c^3/4A B2B,2 B2B2  | 
w:   |   | 
f2f6 f2f6  | fgag ag2^3/4e f2B2 f2f2  | \
w:  Pan car  pe zik   |  de *  *  *  ğil  *  *  mi   SAZ  | 
gfga g2^1/4f2 e2de .d4  | 
w:  Ci ğer  *  *  *  *  e *  *  zik   | 
dd2a g2^1/4f2 e2d2 d2c2  | B2B2 dc2^3/4A B4 Bcd/e/f/g/  | 
w:  ci ğer  *  *  *  e *  zik   |  de ğil  *  *  *  mi   SAZ  | 
gfga g2^1/4f2 e2de .d4  | dd2a g2^1/4f2 e2d2 d2c2  | \
w:  Ci ğer  *  *  *  *  e *  *  zik   |  ci ğer  *  *  *  e *  zik   | 
B2B2 dc2B B4 BFFF  | 
w:  de ğil  *  *  *  mi   SAZ  | 
f2f6 f2f6  | fgag ag2^3/4e f4 .f2.f2  | \
w:  Ben  sev dim_ el  |  ler  *  *  *  al *  *  dı   SAZ  | 
gfga gg^1/4f2 e2de d4  | 
w:  Ba na  *  *  *  da  *  ya *  *  zık   | 
dd2a gg^1/4fe e2de d2c2  | B2B2 dc2^3/4A B2B,2 B2B2  | 
w:  ba na  *  *  da  *  *  ya *  *  zık   |  de ğil  *  *  *  mi   SAZ  | 
fg2a gg^1/4fe e2de d4  | aa3 gg^1/4f2 e2d2 d2c2  | \
w:  Ba na  *  *  da  *  *  ya *  *  zık   |  ba na  *  da  *  ya *  zık   | 
B2B2 dc2^3/4A B4 .B.cd/e/f/g/  | 
w:  de ğil  *  *  *  mi   SAZ  | 
gfgf gg^1/4f2 eede d2d2  | dd2a gg^1/4f2 eed2 dccB  | 
w:  Hü day *  *  da  da  *  ha nım  *  *  kız lar   |  hü day *  da  da  *  ha nım  *  kız *  lar   | 
B2B2 dc2^3/4A B4 .B.cd/e/f/g/  | f2g2 gg^1/4f2 e2de .d4  | 
w:  hü day *  *  *  da   SAZ  |  Ye ni le  de  *  çık *  *  mış   | 
aa3 gg^1/4f2 ede2 d2c2  | BB3 dc2^3/4A B2B,2 .B.cd/e/f/g/  | 
w:  ye ni le  de  *  çık *  *  mış   |  bu  gay *  *  *  da   SAZ  | 
g2gf {g}g2^1/4f2 e{f}e{f}de .d4  | \
w:  Ay rı *  *  lık  var  ö *  lüm  *  *  *  var   | 
d3a g2^1/4f2 eede d2c2  | B4 dc2^3/4A B2B,2 B2B2  | 
w:  ay rı lık  var  ö lüm  *  *  var   |  ne  fay *  *  da   SAZ  | 
|


